X:73
T:Pigeon On The Gate, The
S:The Session: https://thesession.org/tunes/517#setting517
C:Traditional
R:reel
K:Edor
M:4/4
L:1/8
Q:1/4=120
dc|: "Em"BE ~E2 BEdE| BE ~E2 dBAF| "D"D2 (3FED ADFE| DEFA BAFA|
| "Em"BE ~E2 BEdE| BE ~E2 B2 AF| "D"D2 FA dfec|1 dBAF E2 dc:|2 dBAF E2 FA |]
|: "Em"Beed efed| (3Bcd ef gedB| "D"Addc d3 B| A2 FE DEFA| 
| "Em"Beed efed| (3Bcd ef g2 fg| "D"af (3gfe fd ec|1 dBAF E2 FA:|2 dBAF E4 |]

